dist/img/svg/icon-burger.svg

<svg width="34" height="20" viewBox="0 0 34 20" fill="none" xmlns="http://www.w3.org/2000/svg">
<path d="M23.1818 1.15039V4.15039L0 4.15039L1.26664e-07 1.15039L23.1818 1.15039Z" fill="#4BB1BC"/>
<path d="M23.1818 1.15039V4.15039L0 4.15039L1.26664e-07 1.15039L23.1818 1.15039Z" fill="#4BB1BC"/>
<path d="M23.1818 1.15039V4.15039L0 4.15039L1.26664e-07 1.15039L23.1818 1.15039Z" fill="black"/>
<path d="M32 8.15039V11.1504L0 11.1504L1.74846e-07 8.15039L32 8.15039Z" fill="#4BB1BC"/>
<path d="M32 8.15039V11.1504L0 11.1504L1.74846e-07 8.15039L32 8.15039Z" fill="#4BB1BC"/>
<path d="M32 8.15039V11.1504L0 11.1504L1.74846e-07 8.15039L32 8.15039Z" fill="black"/>
<path d="M32 15.1504V18.1504L0 18.1504L1.74846e-07 15.1504L32 15.1504Z" fill="#4BB1BC"/>
<path d="M32 15.1504V18.1504L0 18.1504L1.74846e-07 15.1504L32 15.1504Z" fill="#4BB1BC"/>
<path d="M32 15.1504V18.1504L0 18.1504L1.74846e-07 15.1504L32 15.1504Z" fill="black"/>
</svg>

<svg width="34" height="20" fill="none" xmlns="http://www.w3.org/2000/svg"><path d="M23.182 1.15v3H0v-3h23.182z" fill="#4BB1BC"/><path d="M23.182 1.15v3H0v-3h23.182z" fill="#4BB1BC"/><path d="M23.182 1.15v3H0v-3h23.182z" fill="#000"/><path d="M32 8.15v3H0v-3h32z" fill="#4BB1BC"/><path d="M32 8.15v3H0v-3h32z" fill="#4BB1BC"/><path d="M32 8.15v3H0v-3h32z" fill="#000"/><path d="M32 15.15v3H0v-3h32z" fill="#4BB1BC"/><path d="M32 15.15v3H0v-3h32z" fill="#4BB1BC"/><path d="M32 15.15v3H0v-3h32z" fill="#000"/></svg>
